svg/u270f.svg

<svg viewBox="0 0 128 128" xmlns="http://www.w3.org/2000/svg">
  <g>
    <path d="M123.87,118.8l-6.18-16.49l-4.25-11.35c-0.96-2.93-1.14-4.14-2.77-5.77L98.85,73.37L73.39,98.83 l11.83,11.83c0.97,0.97,2.83,1.8,5.76,2.76l11.35,4.25l16.49,6.18C121.93,124.86,124.88,121.91,123.87,118.8z" fill="#FFECB3"/>
    <g>
      <path d="M85.65,106.83l-0.03-0.03L85.65,106.83z" fill="none"/>
      <path d="M106.8,85.6l0.21,0.21c-0.07-0.07-0.12-0.16-0.19-0.23L106.8,85.6z" fill="none"/>
    </g>
    <path d="M118.82,123.85l-13.66-5.12c0,0,5.64-0.32,9.45-4.13c3.81-3.81,4.14-9.46,4.14-9.46l5.12,13.66 C124.88,121.91,121.93,124.86,118.82,123.85z" fill="#616161"/>
    <path d="M43.18,17.71L37.77,37l-20.04,6.16L6.41,31.85c-3.12-3.12-4.6-9.34,3.67-17.61l4.99-4.99 c7.15-7.15,13.68-5.98,16.8-2.86L43.18,17.71z" fill="#EF5350"/>
    <path d="M34.27,44.64l10.37-10.37l60.23,60.23c0,0,1.23,5.12-1.9,8.25s-8.47,2.12-8.47,2.12L34.27,44.64z" fill="#FFC107"/>
    <path d="M26.73,52.18l58.58,58.58c9.46,2.06,9.05-6.03,9.05-6.03L34.27,44.64L26.73,52.18z" fill="#FFA000"/>
    <path d="M44.65,34.26l60.09,60.09c0,0,10.82,0,5.87-9.21L52.19,26.72L44.65,34.26z" fill="#FDD835"/>
    <polygon points="94.27,106.04 33.66,45.43 35.07,44.02 96.07,105.02 94.5,104.86 " fill="#D1762C"/>
    <polygon points="105.11,96.15 40.15,31.19 41.57,29.78 106.04,94.25 104.87,94.49 " fill="#F19534"/>
    <path d="M52.19,26.72c0,0-5.47,8.09-10,12.67c-8.67,8.74-15.46,12.79-15.46,12.79l1.75,1.75 c2.49-0.97,8.86-3.88,15.22-10.23c6.4-6.4,9.42-12.65,10.43-15.04L52.19,26.72z" opacity="0.2" fill="#4E342E"/>
    <path d="M23.49,51.9c0.56,0.56,1.35,0.81,2.13,0.68c0,0,8.19-2.5,16.33-10.64s10.83-16.07,10.83-16.07 c0.13-0.78-0.12-1.58-0.68-2.14l-8.58-8.58c-0.36-0.36-0.86-0.55-1.36-0.49c-0.17,0.02-0.34,0.04-0.52,0.07 c-0.68,0.1-1.22,0.6-1.41,1.26c0,0-3.92,7.6-10.38,14.05S15.51,40.25,15.51,40.25c-0.66,0.18-1.17,0.71-1.27,1.39 c0,0.01,0,0.01,0,0.02c-0.08,0.54,0.1,1.08,0.48,1.46L23.49,51.9z" fill="#94D1E0"/>
    <ellipse cx="15.05" cy="15.04" rx="15.03" ry="4.45" fill="#FF8383" transform="matrix(0.7071 -0.7071 0.7071 0.7071 -6.2293 15.0504)"/>
    <path d="M41.61,21.74c-3.29,6.3-8.7,11.47-15.14,14.46c-0.42,0.19-1.01,0.33-1.26-0.05 c-0.19-0.3-0.02-0.68,0.17-0.98c0.84-1.3,2-2.35,3.12-3.42c2.92-2.8,5.6-5.84,8.01-9.08c1.23-1.65,2.38-3.35,3.46-5.1 c0.6-0.96,1.67-2.99,3.04-1.56C44.2,17.24,42.24,20.53,41.61,21.74z" fill="#B9E4EA"/>
    <path d="M37.88,33.47c-0.26,0.27-0.53,0.54-0.66,0.89s-0.08,0.8,0.22,1.02c0.25,0.19,0.59,0.17,0.9,0.12 c1.73-0.27,3.26-1.25,4.61-2.35c2.95-2.39,5.45-5.71,5.69-9.5c0.03-0.45,0.02-0.92-0.18-1.32c-1.27-2.51-3.96,3.1-4.49,3.89 C42.2,28.85,40.09,31.21,37.88,33.47z" fill="#B9E4EA"/>
  </g>
</svg>

<svg viewBox="0 0 128 128" xmlns="http://www.w3.org/2000/svg">
  <defs/>
  <path d="M123.87,118.8 L117.69,102.31 L113.44,90.96 C112.48,88.03 112.3,86.82 110.67,85.19 L98.85,73.37 L73.39,98.83 L85.22,110.66 C86.19,111.63 88.05,112.46 90.98,113.42 L102.33,117.67 L118.82,123.85 C121.93,124.86 124.88,121.91 123.87,118.8 Z" fill="#FFECB3"/>
  <path d="M118.82,123.85 L105.16,118.73 C105.16,118.73 110.8,118.41 114.61,114.6 C118.42,110.79 118.75,105.14 118.75,105.14 L123.87,118.8 C124.88,121.91 121.93,124.86 118.82,123.85 Z" fill="#616161"/>
  <path d="M43.18,17.71 L37.77,37 L17.73,43.16 L6.41,31.85 C3.29,28.73 1.81,22.51 10.08,14.24 L15.07,9.25 C22.22,2.1 28.75,3.27 31.87,6.39 L43.18,17.71 Z" fill="#EF5350"/>
  <path d="M34.27,44.64 L44.64,34.27 L104.87,94.5 C104.87,94.5 106.1,99.62 102.97,102.75 C99.84,105.88 94.5,104.87 94.5,104.87 L34.27,44.64 Z" fill="#FFC107"/>
  <path d="M26.73,52.18 L85.31,110.76 C94.77,112.82 94.36,104.73 94.36,104.73 L34.27,44.64 L26.73,52.18 Z" fill="#FFA000"/>
  <path d="M44.65,34.26 L104.74,94.35 C104.74,94.35 115.56,94.35 110.61,85.14 L52.19,26.72 L44.65,34.26 Z" fill="#FDD835"/>
  <path d="M94.27,106.04 L33.66,45.43 L35.07,44.02 L96.07,105.02 L94.5,104.86 Z" fill="#D1762C"/>
  <path d="M105.11,96.15 L40.15,31.19 L41.57,29.78 L106.04,94.25 L104.87,94.49 Z" fill="#F19534"/>
  <path d="M52.19,26.72 C52.19,26.72 46.72,34.81 42.19,39.39 C33.52,48.13 26.73,52.18 26.73,52.18 L28.48,53.93 C30.97,52.96 37.34,50.05 43.7,43.7 C50.1,37.3 53.12,31.05 54.13,28.66 L52.19,26.72 Z" fill="#4E342E" opacity="0.2"/>
  <path d="M23.49,51.9 C24.05,52.46 24.84,52.71 25.62,52.58 C25.62,52.58 33.81,50.08 41.95,41.94 C50.09,33.8 52.78,25.87 52.78,25.87 C52.91,25.09 52.66,24.29 52.1,23.73 L43.52,15.15 C43.16,14.79 42.66,14.6 42.16,14.66 C41.99,14.68 41.82,14.7 41.64,14.73 C40.96,14.83 40.42,15.33 40.23,15.99 C40.23,15.99 36.31,23.59 29.85,30.04 C23.39,36.49 15.51,40.25 15.51,40.25 C14.85,40.43 14.34,40.96 14.24,41.64 C14.24,41.65 14.24,41.65 14.24,41.66 C14.16,42.2 14.34,42.74 14.72,43.12 L23.49,51.9 Z" fill="#94D1E0"/>
  <path d="M25.675,4.416 C27.413,6.153 24.063,12.32 18.194,18.19 C12.324,24.059 6.157,27.409 4.42,25.671 C2.682,23.933 6.031,17.766 11.901,11.897 C17.77,6.027 23.937,2.678 25.675,4.416 Z" fill="#FF8383"/>
  <path d="M41.61,21.74 C38.32,28.04 32.91,33.21 26.47,36.2 C26.05,36.39 25.46,36.53 25.21,36.15 C25.02,35.85 25.19,35.47 25.38,35.17 C26.22,33.87 27.38,32.82 28.5,31.75 C31.42,28.95 34.1,25.91 36.51,22.67 C37.74,21.02 38.89,19.32 39.97,17.57 C40.57,16.61 41.64,14.58 43.01,16.01 C44.2,17.24 42.24,20.53 41.61,21.74 Z" fill="#B9E4EA"/>
  <path d="M37.88,33.47 C37.62,33.74 37.35,34.01 37.22,34.36 C37.09,34.71 37.14,35.16 37.44,35.38 C37.69,35.57 38.03,35.55 38.34,35.5 C40.07,35.23 41.6,34.25 42.95,33.15 C45.9,30.76 48.4,27.44 48.64,23.65 C48.67,23.2 48.66,22.73 48.46,22.33 C47.19,19.82 44.5,25.43 43.97,26.22 C42.2,28.85 40.09,31.21 37.88,33.47 Z" fill="#B9E4EA"/>
</svg>
